X: 38651
T: Stornoway Castle
R: reel
M: 4/4
K: Dmajor
|:A2 a2 feea|Acc2BGGB|A2 a2 feef|aceB cAA2:|
|:Acc2feea|Acc2 BGGB|Acc2feef|aceB cAA2:|

